icons/fill-new-other-sport-basketball.svg

<svg xmlns="http://www.w3.org/2000/svg" width="32px" height="32px" viewBox="0 0 32 32" version="1.1">
    <title>fill-new-other-sport-basketball</title>
    <g id="fill-new-other-sport-basketball" stroke-width="1" fill-rule="evenodd">
        <path d="M15.9500649,14.0665793 C16.6490041,14.6886653 17.3113347,15.3509959 17.9334207,16.0499351 C15.5422443,17.8773199 14,20.7585547 14,24 C14,26.2515563 14.7441173,28.3293148 15.999844,30.0007673 C8.26747228,29.9994588 2,23.7316527 2,16 L2.01031678,16.0084712 C3.67986676,17.259167 5.75341797,18 8,18 C11.1826579,18 14.0180525,16.5131892 15.8494955,14.1962561 L15.9500649,14.0665793 Z M19.2013769,17.599493 C21.4047286,20.5327182 22.9516253,23.9872225 23.6239449,27.7448839 C22.0881032,28.7429921 20.3446443,29.4487713 18.4723655,29.7823818 C16.9487867,28.3264087 16,26.2740049 16,24 C16,21.4157242 17.2253595,19.1176464 19.1267577,17.6550876 L19.2013769,17.599493 Z M24,16 C26.2740049,16 28.3264087,16.9487867 29.7829428,18.4720912 C29.2272775,21.5877048 27.6417648,24.3463853 25.3908634,26.3833875 C24.5994085,22.7859876 23.0629021,19.4692105 20.9517774,16.601543 C21.8908595,16.2138279 22.9204587,16 24,16 Z M4.25511614,8.37605508 C8.01277754,9.04837474 11.4672818,10.5952714 14.400507,12.7986231 C12.9420887,14.742556 10.6178902,16 8,16 C5.72599514,16 3.67359127,15.0512133 2.21705725,13.5279088 C2.53510178,11.7458629 3.18964188,10.0807578 4.11294866,8.60060915 L4.25511614,8.37605508 Z M16,2 C23.7319865,2 30,8.2680135 30,16 C28.3293148,14.7441173 26.2515563,14 24,14 C22.4457981,14 20.9744083,14.3545607 19.6623043,14.9872086 C18.8436037,14.0423625 17.9576375,13.1563963 17.0119939,12.3375069 C17.6454393,11.0255917 18,9.55420188 18,8 C18,5.87822808 17.3391952,3.91079539 16.21216,2.29227626 L16,2 Z M13.5279088,2.21705725 C15.0512133,3.67359127 16,5.72599514 16,8 C16,9.07954135 15.7861721,10.1091405 15.3985594,11.0487544 C12.5307895,8.93709794 9.21401239,7.40059153 5.61795934,6.60853718 C7.59343738,4.42473152 10.2499307,2.86698193 13.2524768,2.26950347 L13.5279088,2.21705725 Z" id="&#24418;&#29366;" />
    </g>
</svg>

<svg xmlns="http://www.w3.org/2000/svg" viewBox="0 0 32 32"><path fill="currentColor" d="M15.95 14.067a24.149 24.149 0 0 1 1.983 1.983A9.983 9.983 0 0 0 14 24c0 2.252.744 4.33 2 6-7.733 0-14-6.268-14-14l.01.008A9.956 9.956 0 0 0 8 18a9.982 9.982 0 0 0 7.85-3.804zm3.251 3.532a23.884 23.884 0 0 1 4.423 10.146 13.931 13.931 0 0 1-5.152 2.037A7.974 7.974 0 0 1 16 24a7.987 7.987 0 0 1 3.127-6.345zM24 16c2.274 0 4.326.949 5.783 2.472a13.983 13.983 0 0 1-4.392 7.911 25.866 25.866 0 0 0-4.44-9.781A7.97 7.97 0 0 1 24 16M4.255 8.376A23.884 23.884 0 0 1 14.401 12.8 7.984 7.984 0 0 1 8 16a7.977 7.977 0 0 1-5.783-2.472A13.924 13.924 0 0 1 4.113 8.6zM16 2c7.732 0 14 6.268 14 14a9.95 9.95 0 0 0-6-2 9.96 9.96 0 0 0-4.338.987 26.214 26.214 0 0 0-2.65-2.65A9.948 9.948 0 0 0 18 8c0-2.122-.66-4.09-1.788-5.708zm-2.472.217A7.977 7.977 0 0 1 16 8c0 1.08-.214 2.11-.601 3.049a25.874 25.874 0 0 0-9.781-4.44 13.977 13.977 0 0 1 7.634-4.34z"/></svg>
